src/main/resources/icons/SeamIcons/resources/icons/toEndConversation_dark.svg

<svg xmlns="http://www.w3.org/2000/svg" width="12" height="12" viewBox="0 0 12 12">
  <g fill="none" fill-rule="evenodd">
    <path fill="#3592C4" d="M10,9 L12,9 L9.5,12 L7,9 L9,9 L9,0 L10,0 L10,9 Z"/>
    <path fill="#9AA7B0" d="M0,3 L7,3 L7,10 L0,10 L0,3 Z M1.75,5 L1.75,5.6 L5.25,5.6 L5.25,5 L1.75,5 Z M1.75,6.2 L1.75,6.8 L5.25,6.8 L5.25,6.2 L1.75,6.2 Z M1.75,7.4 L1.75,8 L5.25,8 L5.25,7.4 L1.75,7.4 Z"/>
  </g>
</svg>

<svg xmlns="http://www.w3.org/2000/svg" width="12" height="12" viewBox="0 0 12 12"><rect id="frame" width="12" height="12" fill="none"/><g fill="none" fill-rule="evenodd"><path fill="#3592C4" d="M10 9h2l-2.5 3L7 9h2V0h1v9z"/><path fill="#9AA7B0" d="M0 3h7v7H0V3zm1.75 2v.6h3.5V5h-3.5zm0 1.2v.6h3.5v-.6h-3.5zm0 1.2V8h3.5v-.6h-3.5z"/></g></svg>
